X: 6033
T: Cape Breton
R: jig
M: 6/8
K: Dmajor
|:B/c/|dcd A^GA|F^EF D/D/D/=E/F|G2 B e2 d|cea gfe|
d3 A3|F^EF D=EF|GEe cBc|d3 d2:|
|:c/d/|e2 c Ace|f2 d Adf|g2 e f2 d|ecA AB/c/d|
[1 ecA Ace|fdA Ad/e/f|efd cd/c/B|A3 A2:|
[2 dAF GBe|cBc dfa|f^ef gBc|d3 d2||

